X:132
T:AIR XLIII. Hap me in thy Peticoats.
O:england
B:Joseph Mitchell: "The Highland Fair" (1731)
M:C|
L:1/8
K:DMin
f| cAGF                     D>CDF    |c>d (c/d/)(c/A/) c3
f|(c/d/)(c/A/) (B/A/)(G/F/) D>CDF    |d>f (d/f/)(d/c/) d3||
f| cdf>g                   (f/g/)a gf|c>d (c/d/)(c/A/) c3
d| cdfg                     fagf     |da  (b/a/)(g/f/) d3|]
